X:1
T: Frieda
C:Gordy Euler
R:Reel
Q: 232
K:Em
M:4/4
L:1/8
|:GE BE GE BA|Bc BA G3E|FD AD FD AE|FG FE D3F|
GE BE GE BA|Bc BA G3F|EC A,G GF E^D|E4 E4:|
|:BG DG BG DB|AB AG F3F|GE B,E GE CE|FG FE D3D|
EB, GE FD AF|EG Bc BA GF|EC A,C B,^D FG|E4 E4:|
